img/svg/upload-ico.svg

<svg width="20" height="20" viewBox="0 0 20 20" fill="none" xmlns="http://www.w3.org/2000/svg">
<path d="M10 11.1328C10.4315 11.1328 10.7812 10.783 10.7812 10.3516V0.78125C10.7812 0.349766 10.4315 0 10 0C9.56852 0 9.21875 0.349766 9.21875 0.78125V10.3516C9.21875 10.783 9.56852 11.1328 10 11.1328Z" fill="white"/>
<path d="M8.29971 14.3486L8.30365 14.3526C8.76072 14.8097 9.36104 15.0381 9.96135 15.0381C10.5612 15.0381 11.161 14.8099 11.6171 14.3537L15.942 10.0457C16.2477 9.74125 16.2487 9.2466 15.9442 8.94089C15.6397 8.63523 15.145 8.63421 14.8393 8.93871L10.5134 13.2478C10.3658 13.3953 10.1696 13.4766 9.96096 13.4766C9.75303 13.4766 9.55748 13.3959 9.4101 13.2494L5.16576 8.94375C4.86287 8.63644 4.36818 8.63293 4.06092 8.93582C3.75365 9.23871 3.7501 9.73336 4.05299 10.0407L8.29971 14.3486Z" fill="white"/>
<path d="M19.2188 16.0938C18.7873 16.0938 18.4375 16.4435 18.4375 16.875C18.4375 17.7366 17.7366 18.4375 16.875 18.4375H3.125C2.26344 18.4375 1.5625 17.7366 1.5625 16.875C1.5625 16.4435 1.21273 16.0938 0.78125 16.0938C0.349766 16.0938 0 16.4435 0 16.875C0 18.5981 1.40188 20 3.125 20H16.875C18.5981 20 20 18.5981 20 16.875C20 16.4435 19.6502 16.0938 19.2188 16.0938Z" fill="white"/>
</svg>

<svg width="20" height="20" fill="none" xmlns="http://www.w3.org/2000/svg"><path d="M10 11.133c.431 0 .781-.35.781-.781V.782a.781.781 0 10-1.562 0v9.57c0 .431.35.78.781.78z" fill="#fff"/><path d="M8.3 14.349l.004.004a2.337 2.337 0 001.657.685c.6 0 1.2-.228 1.656-.684l4.325-4.308a.781.781 0 10-1.103-1.107l-4.326 4.309a.777.777 0 01-.552.229.776.776 0 01-.55-.228L5.165 8.944a.781.781 0 10-1.113 1.097L8.3 14.349zm10.919 1.745a.781.781 0 00-.782.781c0 .862-.7 1.563-1.562 1.563H3.125a1.565 1.565 0 01-1.563-1.563.781.781 0 10-1.562 0A3.129 3.129 0 003.125 20h13.75A3.129 3.129 0 0020 16.875a.781.781 0 00-.781-.781z" fill="#fff"/></svg>
